dijit/geoenrichment/themes/common/images/stars_old.svg

<svg xmlns="http://www.w3.org/2000/svg" width="52" height="13" viewBox="0 0 52 13">
<path fill="none" stroke="#BCBCBC" d="M6.5 1.168L8.105 4.42l3.589.521-2.597 2.532.613 3.574L6.5 9.359l-3.21 1.688.613-3.574-2.597-2.532 3.589-.521L6.5 1.168z"/>
<path fill="#F7F12D" stroke="#BCBCBC" d="M19.5 1.168l1.605 3.252 3.589.521-2.597 2.532.613 3.574-3.21-1.688-3.21 1.688.613-3.574-2.597-2.532 3.589-.521L19.5 1.168z"/>
<path fill="none" stroke="#999" d="M32.5 1.168l1.605 3.252 3.589.521-2.597 2.532.613 3.574-3.21-1.688-3.21 1.688.613-3.574-2.597-2.532 3.589-.521L32.5 1.168z"/>
<path fill="#E0DB29" stroke="#999" d="M45.5 1.168l1.605 3.252 3.589.521-2.597 2.532.613 3.574-3.21-1.688-3.21 1.688.613-3.574-2.597-2.532 3.589-.521L45.5 1.168z"/>
</svg>

<svg version="1.1" id="Layer_1" xmlns="http://www.w3.org/2000/svg" xmlns:xlink="http://www.w3.org/1999/xlink" x="0px" y="0px"
	 viewBox="0 0 52 13" width="52" height="13"  xml:space="preserve">
<path d="M  6.5 1.168 L  8.105 4.42 L 11.694 4.941 L  9.097 7.473 L  9.71 11.047 L  6.5 9.359 L  3.29 11.047 L  3.903 7.473 L  1.306 4.941 L  4.895 4.42 L  6.5 1.168 Z" fill="none" stroke="#BCBCBC" stroke-width="1"/>
<path d="M 19.5 1.168 L 21.105 4.42 L 24.694 4.941 L 22.097 7.473 L 22.71 11.047 L 19.5 9.359 L 16.29 11.047 L 16.903 7.473 L 14.306 4.941 L 17.895 4.42 L 19.5 1.168 Z" fill="#F7F12D" stroke="#BCBCBC" stroke-width="1"/>
<path d="M 32.5 1.168 L 34.105 4.42 L 37.694 4.941 L 35.097 7.473 L 35.71 11.047 L 32.5 9.359 L 29.29 11.047 L 29.903 7.473 L 27.306 4.941 L 30.895 4.42 L 32.5 1.168 Z" fill="none" stroke="#999999" stroke-width="1"/>
<path d="M 45.5 1.168 L 47.105 4.42 L 50.694 4.941 L 48.097 7.473 L 48.71 11.047 L 45.5 9.359 L 42.29 11.047 L 42.903 7.473 L 40.306 4.941 L 43.895 4.42 L 45.5 1.168 Z" fill="#E0DB29" stroke="#999999" stroke-width="1"/>
</svg>
